X: 58
M:6/8
L:1/8
K:A
vc2E EFE|Edc BAB|(Ec).c (EB).B|ABA AFE|
(Ec).c (EB).B|ABc def|edc BcB|ABA AFE:||:
vAce Adf|Ace Bcd|Ace fga|ABA AFE|


